images/icons/icon-shopping-cart-black-full.svg

<svg width="18" height="18" viewBox="0 0 18 18" fill="none" xmlns="http://www.w3.org/2000/svg">
<path fill-rule="evenodd" clip-rule="evenodd" d="M0.645996 2.15626C0.645996 1.78807 0.944473 1.48959 1.31266 1.48959H3.92011C4.23786 1.48959 4.51145 1.71385 4.57381 2.02542L5.11892 4.7489H15.6536C15.8523 4.7489 16.0406 4.83752 16.1673 4.99061C16.2939 5.14369 16.3457 5.34529 16.3085 5.54046L15.2655 11.0096L15.2646 11.0146L15.2645 11.0146C15.1744 11.4681 14.9277 11.8756 14.5675 12.1656C14.2091 12.4541 13.7611 12.608 13.3012 12.6009H6.97651C6.51664 12.608 6.06866 12.4541 5.71028 12.1656C5.3502 11.8757 5.1035 11.4685 5.01332 11.0151L5.01321 11.0146L3.92444 5.5748C3.91997 5.55655 3.91625 5.53801 3.91331 5.5192L3.37365 2.82293H1.31266C0.944473 2.82293 0.645996 2.52445 0.645996 2.15626ZM6.52862 13.8756C5.80067 13.8756 5.21055 14.4657 5.21055 15.1936C5.21055 15.9216 5.80067 16.5117 6.52862 16.5117C7.25657 16.5117 7.84668 15.9216 7.84668 15.1936C7.84668 14.4657 7.25657 13.8756 6.52862 13.8756ZM13.6986 13.8756C12.9707 13.8756 12.3805 14.4657 12.3805 15.1936C12.3805 15.9216 12.9707 16.5117 13.6986 16.5117C14.4266 16.5117 15.0167 15.9216 15.0167 15.1936C15.0167 14.4657 14.4266 13.8756 13.6986 13.8756Z" fill="#2D3440"/>
</svg>

<svg width="18" height="18" fill="none" xmlns="http://www.w3.org/2000/svg"><path fill-rule="evenodd" clip-rule="evenodd" d="M.646 2.156c0-.368.298-.666.667-.666H3.92c.318 0 .591.224.654.535l.545 2.724h10.535a.667.667 0 0 1 .654.791l-1.043 5.47v.005A1.97 1.97 0 0 1 13.3 12.6H6.977a1.97 1.97 0 0 1-1.964-1.586l-1.089-5.44a.666.666 0 0 1-.01-.056l-.54-2.696H1.313a.667.667 0 0 1-.667-.667Zm5.883 11.72a1.318 1.318 0 1 0 0 2.636 1.318 1.318 0 0 0 0-2.636Zm7.17 0a1.318 1.318 0 1 0 0 2.636 1.318 1.318 0 0 0 0-2.636Z" fill="#2D3440"/></svg>
